X:1
T:Partition sans titre
C:Compositeur / Arrangeur
L:1/8
M:4/4
I:linebreak $
K:A
V:1 treble nm="Violon" snm="Vln."
V:1
"F#m" agfc cB c2 | agfd dc (d2 |"E7" d)efB BABc | dB B>c"F#m" c4 |"F#m" agfc cBca | agfd dc (d2 | %6
"E7" d)efB BABc |1 dBPBA GA"F#m"FA :|2 dBPBA GA"F#m" F2 |:"F#m" FDCD FAcA | AcBB"E" GBAG | %11
"F#m" FDB,D FABA |"E7" Bcdd d2 dc |"F#m" cACD FAcA | AcBB"E" GBAG |"F#m" FDB,D FABA | %16
"E7" BcdB GA"F#m" F2 :| %17
